src/ui/resource-fill.svg

<?xml version="1.0" encoding="UTF-8"?><svg xmlns="http://www.w3.org/2000/svg" width="32" height="32" viewBox="0 0 32 32"><defs><style>.uuid-da82b2f3-c318-4e4a-ab8a-cf19917abf5c{fill:none;}.uuid-bfa62dc0-41fa-4fbe-a319-650159bac609{fill:#151515;}</style></defs><g id="uuid-a3ccd388-a4dd-4173-ae6a-8d6ee3cb4a4d"><rect class="uuid-da82b2f3-c318-4e4a-ab8a-cf19917abf5c" width="32" height="32"/></g><g id="uuid-a1454753-fb5f-4c0b-bd69-1b0d37ddcb8e"><path class="uuid-bfa62dc0-41fa-4fbe-a319-650159bac609" d="M26.5,1.25h-12.375v8.25c0,.896-.729,1.625-1.625,1.625H4.25v18.375c0,.68945.56055,1.25,1.25,1.25h21c.68945,0,1.25-.56055,1.25-1.25V2.5c0-.68945-.56055-1.25-1.25-1.25ZM10,14.875h6c.62109,0,1.125.50391,1.125,1.125s-.50391,1.125-1.125,1.125h-6c-.62109,0-1.125-.50391-1.125-1.125s.50391-1.125,1.125-1.125ZM22,27.125h-12c-.62109,0-1.125-.50391-1.125-1.125s.50391-1.125,1.125-1.125h12c.62109,0,1.125.50391,1.125,1.125s-.50391,1.125-1.125,1.125ZM22,22.125h-12c-.62109,0-1.125-.50391-1.125-1.125s.50391-1.125,1.125-1.125h12c.62109,0,1.125.50391,1.125,1.125s-.50391,1.125-1.125,1.125Z"/><path class="uuid-bfa62dc0-41fa-4fbe-a319-650159bac609" d="M11.875,8.875V1.2749c-.15118.02631-.29529.08484-.40527.19482l-7,7c-.10999.10999-.16852.25409-.19482.40527h7.6001Z"/></g></svg>

<svg xmlns="http://www.w3.org/2000/svg" viewBox="0 0 32 32">
  <path d="M26.5 1.25H14.125V9.5c0 .896-.729 1.625-1.625 1.625H4.25V29.5c0 .69.56 1.25 1.25 1.25h21c.69 0 1.25-.56 1.25-1.25v-27c0-.69-.56-1.25-1.25-1.25ZM10 14.875h6a1.125 1.125 0 0 1 0 2.25h-6a1.125 1.125 0 0 1 0-2.25Zm12 12.25H10a1.125 1.125 0 0 1 0-2.25h12a1.125 1.125 0 0 1 0 2.25Zm0-5H10a1.125 1.125 0 0 1 0-2.25h12a1.125 1.125 0 0 1 0 2.25Z"/>
  <path d="M11.875 8.875v-7.6a.743.743 0 0 0-.407.197l-7 7.048a.737.737 0 0 0-.184.355h7.591Z"/>
</svg>
